packages/icons/src/laptop.svg

<svg width="15" height="15" viewBox="0 0 15 15" fill="none" xmlns="http://www.w3.org/2000/svg">
  <path
    fill-rule="evenodd"
    clip-rule="evenodd"
    d="M2 4.25C2 4.11193 2.11193 4 2.25 4H12.75C12.8881 4 13 4.11193 13 4.25V11.5H2V4.25ZM2.25 3C1.55964 3 1 3.55964 1 4.25V12H0V12.5C0 12.7761 0.223858 13 0.5 13H14.5C14.7761 13 15 12.7761 15 12.5V12H14V4.25C14 3.55964 13.4404 3 12.75 3H2.25Z"
    fill="currentColor"
  />
</svg>

<svg xmlns="http://www.w3.org/2000/svg" width="15" height="15" fill="none"><path fill="currentColor" fill-rule="evenodd" d="M2 4.25A.25.25 0 0 1 2.25 4h10.5a.25.25 0 0 1 .25.25v7.25H2zM2.25 3C1.56 3 1 3.56 1 4.25V12H0v.5a.5.5 0 0 0 .5.5h14a.5.5 0 0 0 .5-.5V12h-1V4.25C14 3.56 13.44 3 12.75 3z" clip-rule="evenodd"/></svg>
